vice/share/icons/Adwaita/scalable/devices/drive-harddisk-usb-symbolic.svg

<?xml version="1.0" encoding="UTF-8"?>
<svg height="16px" viewBox="0 0 16 16" width="16px" xmlns="http://www.w3.org/2000/svg">
    <path d="m 8.5 0 h -1 l -2 4 h 1.5 v 5 h -3 v -1.269531 c 0.617188 -0.359375 1 -1.015625 1 -1.730469 c 0 -1.105469 -0.894531 -2 -2 -2 s -2 0.894531 -2 2 c 0 0.714844 0.382812 1.375 1 1.730469 v 1.269531 c 0 2 2 2 2 2 h 3 v 1.269531 c -0.617188 0.359375 -1 1.015625 -1 1.730469 c 0 1.105469 0.894531 2 2 2 s 2 -0.894531 2 -2 c 0 -0.714844 -0.382812 -1.375 -1 -1.730469 v -1.269531 h 3 s 2 0 2 -2 v -1 s 1.125 -0.1875 1 -1 v -2 c 0.125 -1.125 -1 -1 -1 -1 h -2 c -1.0625 0 -1 1 -1 1 v 2 c 0 1 1 1 1 1 v 1 h -3 v -5 h 1.5 z m 0 0" fill="#2e3434"/>
</svg>

<svg xmlns="http://www.w3.org/2000/svg" width="16" height="16"><path d="M8.5 0h-1l-2 4H7v5H4V7.729A2 2 0 005 6a2 2 0 10-3 1.73V9c0 2 2 2 2 2h3v1.271A2 2 0 006 14a2 2 0 103-1.73V11h3s2 0 2-2V8s1.125-.188 1-1V5c.125-1.125-1-1-1-1h-2c-1.063 0-1 1-1 1v2c0 1 1 1 1 1v1H9V4h1.5z" fill="#2e3436" fill-rule="evenodd"/></svg>
